X:1
T:Title
%%score 1 2
L:1/8
Q:1/4=100
M:4/4
K:G
V:1 treble nm="Grand Piano, Soprano"
V:2 bass nm="Choir Pad, Send Us the Light"
V:1
 [DB]2 [DB]>[DA] [DG]2 [DG]>[DF] | E2 [EG]>[EA] [GB]4 | [FA]2 [FA]>[FA] [FA]4 | [GB]3 [FA] G4 | %4
w: By~Arranged~from~John~William~Dadmun~(1819\-1890) * * * * *||||
 [DB]2 [DB]>[DA] [DG]2 [DG]>[DF] | E2 [EG]>[EA] [GB]4 | [FA]2 [FA]>[FA] [FA]4 | [GB]3 [FA] G4 | %8
w: ||||
 [Ec]2 [Ec]>[Ec] [Ec]2 [Ec]>[Ec] | [DB]2 [DB]>[DB] [DA]4 | [Ec]2 [Ec]>[Ec] [Ec]2 [Ec]>[Ec] | %11
w: |||
 [DB]2 [DB]>[DB] [DA]4 | [DB]2 [DB]>[DA] [DG]2 [DG]>[DF] | E2 [EG]>[EA] [GB]4 | %14
w: |||
 [FA]2 [FA]>[FA] [FA]4 | [GB]3 [FA] G4- | G4 z4 |] %17
w: |||
V:2
 G,2 G,>[G,C] [G,B,]2 [G,B,]>[G,B,] | [G,C]2 [G,C]>[G,C] [G,D]4 | [D,D]2 [D,D]>[D,D] [D,D]4 | %3
 [D,D]3 [D,C] [G,B,]4 | G,2 G,>[G,C] [G,B,]2 [G,B,]>[G,B,] | [G,C]2 [G,C]>[G,C] [G,D]4 | %6
 [D,D]2 [D,D]>[D,D] [D,D]4 | [D,D]3 [D,C] [G,B,]4 | [C,G,]2 [C,G,]>[C,G,] [C,G,]2 [C,G,]>[C,G,] | %9
 [G,,G,]2 [G,,G,]>[B,,G,] [D,F,]4 | [C,G,]2 [C,G,]>[C,G,] [C,G,]2 [C,G,]>[C,G,] | %11
 [G,,G,]2 [G,,G,]>[B,,G,] [D,F,]4 | G,2 G,>[G,C] [G,B,]2 [G,B,]>[G,B,] | %13
 [G,C]2 [G,C]>[G,C] [G,D]4 | [D,D]2 [D,D]>[D,D] [D,D]4 | [D,D]3 [D,C] [G,B,]4- | [G,B,]4 z4 |] %17

